X:1
T: Lady Elisabeth Montague's Reel
C:R. Mackintosh
R:Reel
Q: 232
K:Am
M:4/4
L:1/8
|:e|cA Aa fd dg|ec ge dg BG|c1/2B1/2A Aa fd df|ed cB cA Ae|
cA Aa fd dg|ec ge dg BG|c1/2B1/2A ae fd gf|ed cB cA Ae|
cA ec Bd fd|c1/2d1/2e1/2f1/2 ge dg BG|cA ec Bc df|ec dB cA Ae|
cA ec Bd fd|c1/2d1/2e1/2f1/2 ge dg BG|cA c'e ad gf|ed cB cA A:|
